X: 1413
T: Molly What Ails You?
M:C|
L:1/8
N:"collected by F. O'Neill"
B:O'Neill's 1413
Z:"Transcribed by Bob Safranek, rjs@gsp.org"
K:D
ABAF ABde | ((3fga) ef (dB)Bd | ABAF ABde | ((3fga) (ef) dcdB  |
ABAF ABde | ((3fga) ef   dBBd | ABAF ABde | baef        Td2 d2 ||
f>a (3.a.a.a g>b (3.b.b.b | afef dB B2 | f>a (3.a.a.a g>bbc' | d'c'ba  b2 b2 ||
f>a (3.a.a.a g>b (3.b.b.b | afef dBBd  | ABAF         ABde   | baef    Td2 d2 |]


